X:1
T:1. Berceuse (Lullaby)
T:2. Mi-a-ou 
T:Gabriel Fauré
C:Gabriel Fauré
%%score { 1 | 2 } { ( 3 6 ) | ( 4 5 ) }
L:1/8
Q:3/4=96
M:3/4
K:F
V:1 treble nm="Prima" snm="P."
V:2 treble 
V:3 bass nm="Seconda" snm="S."
V:6 bass 
V:4 bass 
V:5 bass 
V:1
"^Allegro vivo" z6 | z6 | z6 | z6 |!p! .A2 .F2 .A2 | .d2 !>!d4 | (fe) .d2 .e2 | .c2 !>!a4 | %8
"_cresc." (c'=b) .a2 .b2 |!<(! .e'2 ._b2 .e'2 | .a2 .e'2 .=b2!<)! |!f! .e'2 !>!!fermata!c'4 | %12
!p! (d'^c' .d'2) f2- |!<(! (f2 g2 ^g2!<)! |!>(! a4 c'b!>)! | a4) (ga) |"_cresc." .b2 .B2 .b2 | %17
 .g2 .b2 .f2 |!<(! .b2 ._e2 (dc) | =Bcd=efg!<)! |!f! .a2 .f2 .a2 | .d'2 !>![fad']4 | %22
 (f'e') .d'2 .e'2 |!8va(! .c''2 ._e'2 .c''2 | .c'2 .c''2 .a'2 | (b'a') .g'2 .b'2 | %26
 .g'2 (b'a') .g'2 | .[aa']2 .f'2 .[d'd'']2 | .f'2 .[f'f'']2 .f'2 | .[e'b'd'']2 .e'2 ([b'd'']e') | %30
 f'2!8va)! z2 z2 |!p! x2 ce .g2 | .a2 z (a .c'2) | .=b2 z (b .d'2) | .c'2 z c' !>!a2 | x2 fa .d'2 | %36
 .c'2 z (c' .a2) | .g2 z (g .e2) | .d2 z (d .!fermata!g2) | z6 |!mp! c2 z (c!<(! !>!c'2-) | %41
 (c'2 b2 _a2!<)! | .g2) z (g .g'2) | z2!8va(! (b'2 ^c'2!8va)! | d'3 c' .=b2) | %45
!>(! (g'3 =b) .a2!>)! | .[=Bg]2 z2 z2 | x2 ce .g2 | .a2 z (a .c'2) | .=b2 z (b .d'2) | %50
 .c'2 z c' !>!a2 | x2 fa .d'2 | .c'2 z (c' .a2) | .g2 z (g .e2) | .d2 z (d .!fermata!g2) | z6 | %56
!mf! .c2 z (c !>!c'2-) |!<(! (c'2 =b2 a2!<)! | .g2) z (g!mf! .e'2) | z2 (g'2 ^a2 | =b3 =a .g2) | %61
!>(! (e'3 g) .^f2!>)! | .e2 z2 z2 | z"_leggiero"!p! (EGc .e2) | !>!g2 z f .f2 | !>!e2 z ^d .d2 | %66
 !>!^f2 z e .e2 | z (EGc .e2) | !>!g2 z f .f2 |!<(! !>!e2 z f .!fermata!f2!<)! | %70
!mf!!>(! !>!!fermata![ge']2 z !fermata![gd'] .!fermata![gd']2!>)! |!p! x2 ce .g2 | .a2 z (a .c'2) | %73
 .=b2 z (b .d'2) | .c'2 z c' !>!a2 | x2 fa .d'2 | .c'2 z (c' .a2) | .g2 z (g .e2) | %78
 .d2 z (d .!fermata!g2) | z6 |!mp! .c2 z (c !>!c'2-) | (c'2"_cresc." =b2 a2 | .g2) z g!f! !>!g'2- | %83
 (g'2 f'2 e'2 |!>(! .d'2) z (d' .f'2)!>)! |!>(! a2 z (a .=b2)!>)! | .c'2 z2 z2 |!p! .A2 .F2 .A2 | %88
 .d2 !>!d4 | (fe) .d2 .e2 | .c2 !>!a4 |"_cresc." (c'=b) .a2 .b2 |!<(! .e'2 ._b2 .e'2 | %93
 .a2 .e'2 .=b2!<)! |!f! .e'2 !>!!fermata!c'4 |!p! (d'^c' .d'2) !>!f2- |!<(! (f2 g2 ^g2!<)! | %97
!>(! a4 c'b!>)! | a4) (ga) |"_cresc." .b2 .B2 .b2 | .g2 .b2 .f2 |!<(! .b2 ._e2 (dc) | %102
 =Bcd=efg!<)! |!f! .a2 .f2 .a2 | .d'2 !>![fad']4 | (f'e') .d'2 .e'2 |!8va(! .c''2 ._e'2 .c''2 | %107
 .c'2 .c''2 .a'2 | (b'a') .g'2 .b'2 | .g'2 (b'a') .g'2 | .[aa']2 .f'2 .[d'd'']2 | %111
 .f'2 .[f'f'']2 .f'2 | .[e'b'd'']2 .e'2 ([b'd'']e') | .f'2 .[f'f'']2 .f'2 | %114
 .[e'b'd'']2 .e'2 ([b'd'']e') | f'2!8va)! z2 !fermata!z2 | %116
[Q:1/4=126]"^Più lento"!pp![Q:1/4=126]"_Più lento" (G6 | F6 | G4 G2 | F6) | (G4 A2 | %121
 B4 !fermata!_A2 | !fermata!_G4 !fermata!_A2 |[Q:1/4=234]"^Allegro"[Q:1/4=234]"_Allegro" F4) _df | %124
 .[_g_e']2 z .[ge'] .[ge']2 | z2 x2 f_a | .[_g_e']2 z .[ge'] .[ge']2 | z2 x2 fb | ([b_d']6 | %129
 [_a_c']6 | [_gb]6 |!pp! [fa]6) | .a2 .f2 .a2 | .f2 a4 | .a2 .f2 .a2 | .f2 a4 | %136
"_cresc." .a2 .f2 .a2 |!<(! .^c'2 .a2 .c'2 | .f'2 .^c'2 .f'2!<)! | %139
!f!!8va(! .[=c'f'a']2 !fermata!z [c'f'a'] .[c'f'a']2 | !fermata!z6 | %141
 [c'e'a']2 !fermata!z [c'e'a'] [c'e'a']2 | !fermata!z6 | [c'f'a']2!8va)! z2 z2 |] %144
V:2
 z6 | z6 | z6 | z6 | z6 | z2 !>![FA]4 | z6 | z2 !>![Ace]4 | (c=B) .A2 .B2 | .e2 ._B2 .e2 | %10
 .A2 .e2 .=B2 | .e2 !>!c4 | (d^c .d2) F2- | (F2 G2 ^G2 | A4 cB | A4) z2 | z6 | z6 | z6 | z6 | %20
 .A2 .F2 .A2 | .d2 !>!d4 | (fe) .d2 .e2 | .c'2 ._e2 .c'2 | .c2 .c'2 .a2 | (ba) .g2 .b2 | %26
 .g2 (ba) .g2 | z2 .[Adf]2 z2 | .[Adf]2 z2 .[Adf]2 | .[ebd']2 .e2 ([bd']e) | f2 z2 z2 | %31
 E"^leggiero"G x2 x2 | z2 z2 .c2 | .=B2 z (B .d2) | .c2 z c !>!A2 | Ad x2 x2 | c2 z (c .A2) | %37
 .G2 z (G .E2) | .D2 z (D .G2) | z6 | z6 | z6 | z2 z2 .g2 | z2 (b2 ^c2 | d3 c .=B2) | (g3 =B) A2 | %46
 (G2 ^F2 =F2) | EG x2 x2 | z2 z2 .c2 | .=B2 z (B .d2) | .c2 z c !>!A2 | Ad x2 x2 | c2 z (c .A2) | %53
 .G2 z (G .E2) | .D2 z (D .G2) | z6 | z6 | z6 | z2 z2 e2 | z2 (g2 ^A2 | =B3 =A .G2) | %61
!>(! (e3 G) .^F2!>)! | .E2 z2 z2 | z6 | z6 | z (A,=B,^D .A2) | !>![^DA]2 z [EG] .[EG]2 | z6 | z6 | %69
 z (EF_A .c2) | !>!e2 z d .d2 | EG x2 x2 | z2 z2 .c2 | .=B2 z (B .d2) | .c2 z c !>!A2 | Ad x2 x2 | %76
 .c2 z (c .A2) | .G2 z (G .E2) | .D2 z (D .G2) | z6 | z6 | z6 | z2 z2 !>!g2- | g2 (f2 e2 | %84
 .d2) z (d .f2) | A2 z (A .=B2) | .c2 .G2 ._B2 | z6 | z2 !>![FA]4 | z6 | z2 !>![Ace]4 | %91
 (c=B) .A2 .B2 | .e2 ._B2 .e2 | .A2 .e2 .=B2 | .e2 !>!c4 | (d^c .d2) !>!F2- | (F2 G2 ^G2 | A4 cB | %98
 A4) z2 | z6 | z6 | z6 | z6 | .A2 .F2 .A2 | .d2 !>!d4 | (fe) .d2 .e2 | .c'2 ._e2 .c'2 | %107
 .c2 .c'2 .a2 | (ba) .g2 .b2 | .g2 (ba) .g2 | z2 .[Adf]2 z2 | .[Adf]2 z2 .[Adf]2 | %112
 .[bd']2 .e2 ([bd']e) | z2 .[Adf]2 z2 | .[bd']2 .e2 ([bd']e) | f2 z2 z2 | z6 | z6 | z6 | z6 | z6 | %121
 z6 | z6 | F2 _A!pp!_d x2 | ._e2 z .e .e2 | z2 _A_d x2 | ._e2 z e .e2 | z2 B_d x2 | (_d6 | _c6 | %130
 B6 | A6) | .^c2 .A2 .c2 | .A2 F4 | .^c2 .A2 .c2 | .A2 F4 | .^c2 .A2 .c2 | .f2 .^c2 .f2 | %138
 .^c2 .A2 .c2 | .[=cfa]2 z [cfa] .[cfa]2 | z6 | [cea]2 z [cea] [cea]2 | z6 | [cfa]2 z2 z2 |] %144
V:3
!p! .[F,A,C]2 z2 .[F,A,C]2 | z2 !>![F,A,D]4 | .[F,B,D]2 z2 .[E,B,C]2 | z2 !>![E,A,C]4 | %4
 .[F,A,C]2 z2 .[F,A,C]2 | z2 !>![F,A,D]4 | .[F,B,D]2 z2 .[E,B,C]2 | z2 !>![E,A,C]4 | %8
"_cresc." .[F,CE]2 z2 .[F,=B,E]2 |!<(! z2 .[_B,DE]2 z2 | .[A,CE]2 z2 .[G,=B,E]2!<)! | %11
!f! z2 !>![G,CE]4 |!p! z2 .[F,D]2 .[F,D]2 |!<(! .[F,D]2 .[F,G,D]2 .[F,^G,D]2!<)! | %14
!>(! z2 .[E,=G,^C]2 .[E,G,C]2!>)! | z2 .[D,^F,=C]2 .[D,F,C]2 |[K:treble]"_cresc." (D6 | _E6 | F6 | %19
 =E2) z2 z2 |[K:bass] .[F,A,C]2 z2 .[F,A,C]2 | z2 !>![F,A,D]4 | .[A,DF]2 z2 .[G,DE]2 | %23
[K:treble] z2 .[^F,C_E^F]2 z2 | .[G,C_EG]2 z2[K:bass] .[D,A,CD]2 | z2 .[D,G,B,D]2 z2 | %26
 .[G,B,DG]2 z2 .[G,A,^CG]2 | z2 .[F,A,DF]2 z2 | .[F,A,DF]2 z2 .[F,A,DF]2 | .[E,_B,CE]2 z2 .[B,E]2 | %30
 .[A,F]2 z2 z2 |[K:treble] z2 z2!p! .[CG]2 | .[CFA]2 z2 .[CEA]2 | .[=B,DG]2 z2 .[B,DF]2 | %34
 .[CF]2 z2 !>![DF]2 | z2 z2 .[=B,F]2 | .[CF]2 z2 .[DF]2 | .E2 z2 .[A,C]2 | .=B,2 z2 z2 | %39
!mp! .G,2 z (G, !>!G2-) | (G2!mp! F2 _E2 | .D2) z D !>!c2- |!<(! (c2 B2 _A2!<)! | .G2) z (G ^A,2) | %44
 (=B,2!>(! E2 D2!>)! | ^D2 E2 ^F2) | z6 | z2 z2!p! .[CG]2 | .[CFA]2 z2 .[CEA]2 | %49
 .[=B,DG]2 z2 .[B,DF]2 | .[CF]2 z2 !>![DF]2 | z2 z2 .[=B,F]2 | .[CF]2 z2 .[DF]2 | .E2 z2 .[A,C]2 | %54
 .=B,2 z2 z2 |!mp! .G,2 z (G, !>!G2-) | (G2!mf! ^F2 E2 | .^D2) z D !>!c2- |!<(! c2 =B2 A2!<)! | %59
 [_B,EG]2 z (G .G,2) | (=B,2[I:staff +1] E,2!>(![I:staff -1] C2 | ^C2 D2!>)! ^D2) | %62
[K:bass] z"_leggiero"!p! (=B,,E,G, .=B,2) | ._B,2 z _B,, .B,,2 | z (=B,,C,F, .A,2) | %65
 .G,2 z ^F, .F,2 | z (=B,,E,G, .=B,2) | ._B,2 z _B,, .B,,2 | z (=B,,C,F, .A,2) | %69
!<(! .C2 z C, .C,2!<)! |[K:treble]!mf!!>(! .[G,^A,F]2 z [G,=B,F] .[G,B,F]2!>)! | z2 z2!p! .[CG]2 | %72
 .[CFA]2 z2 .[CEA]2 | .[=B,DG]2 z2 .[B,DF]2 | .[CF]2 z2 !>![DF]2 | z2 z2 .[=B,F]2 | %76
 .[CF]2 z2 .[DF]2 | .E2 z2 .[A,C]2 | .=B,2 z2 z2 |!p! G,2 z G,!<(! !>!G2- | (G2 F2 E2!<)! | %81
!p! .D2)"_cresc." z D !>![Cc]2- | ([Cc]2 [=B,=B]2 [A,A]2 | [_B,_B]2) z!f! B, B2- | %84
!>(! (B2 A2 G2!>)! |!>(! F2 E2 D2!>)! | C2) z2 z2 |[K:bass]!p! .[F,A,C]2 z2 .[F,A,C]2 | %88
 z2 !>![F,A,D]4 | .[F,B,D]2 z2 .[E,B,C]2 | z2 !>![E,A,C]4 |"_cresc." [F,CE]2 z2 [F,=B,E]2 | %92
!<(! z2 [_B,DE]2 z2 | [A,CE]2 z2 [G,=B,E]2!<)! |!f! z2 !>![G,CE]4 |!p! z2 .[F,D]2 .[F,D]2 | %96
!<(! .[F,D]2 .[F,G,D]2 .[F,^G,D]2!<)! |!>(! z2 .[E,=G,^C]2 .[E,G,C]2!>)! | %98
 z2 .[D,^F,=C]2 .[D,F,C]2 |[K:treble]"_cresc." (D6 | _E6 | F6 | =E2) z2 z2 | %103
[K:bass] .[F,A,C]2 z2 .[F,A,C]2 | z2 !>![F,A,D]4 | .[A,DF]2 z2 .[G,DE]2 | %106
[K:treble] z2 .[^F,C_E^F]2 z2 | .[G,C_EG]2 z2[K:bass] .[D,A,CD]2 | z2 .[D,G,B,D]2 z2 | %109
 .[G,B,DG]2 z2 .[G,A,^CG]2 | z2 .[F,A,DF]2 z2 | .[F,A,DF]2 z2 .[F,A,DF]2 | .[E,_B,CE]2 z2 .[B,E]2 | %113
 .[F,A,DF]2 z2 .[F,A,DF]2 | .[E,!courtesy!_B,CE]2 z2 .[B,E]2 | .[A,F]2 z2 z2 | %116
[K:treble]!pp! ([A,_E]6 | [_A,_D]6) | ([=A,_E]6 | [_A,_D]6) | (_E6 | [_G,_D]4 [_A,C]2 | B,6 | %123
 _A,6) | z2!p! (__B,_E_G__B) | [_A,_DF]2 z [A,DF] [A,DF]2 | z2 =A,_E_G=A | %127
 [B,_DF]2 z [B,DF] [B,DF]2 | z2[I:staff +1] _D,_G,[I:staff -1]B,_D | ._F2 z F .F2 | %130
 z2[I:staff +1] _D,_G,[I:staff -1]B,_D |[K:bass] .[C,C]2 z [C,C] .[C,C]2 | z2 (F,A,^CF) | %133
 .[F,A,=C]2 z [F,A,C] .[F,A,C]2 | z2 (F,A,^CF) | .[F,A,=C]2 z [F,A,C] .[F,A,C]2 | %136
"_cresc." z2 (^C,F,A,^C) |!<(! z2 (F,A,^CF) | z2[K:treble] (A,^CF!<)!A) | %139
!f! .[=CFA]2 z [CFA] [CFA]2 | z6 | [CEA]2 z [CEA] [CEA]2 | z6 | [CFA]2 z2 z2 |] %144
V:4
 z2 .F,,2 z2 | .B,,2 z2 z2 | z2 .G,,2 z2 | .A,,2 z2 z2 | z2 .F,,2 z2 | .B,,2 z2 z2 | z2 .G,,2 z2 | %7
 .A,,2 z2 z2 | z2 G,,2 z2 |!ped! [C,,C,]2 z2!ped-up!!ped! ^F,,2 | z2!ped-up!!ped! G,,2 z2!ped-up! | %11
!ped! [C,,C,]2 z2!ped-up! z2 |!ped! [_B,,,_B,,]2 z2 z2 | z6!ped-up!!ped!!ped-up! | %14
!ped! [A,,,A,,]2 z2 z2!ped-up! |!ped! D,,2 z2 z2!ped-up! |!ped! z2 [G,B,]2 [G,B,]2!ped-up! | %17
!ped! z2 [G,B,]2 [G,B,]2!ped-up! |!ped!!<(! z2 [G,B,]2 [G,B,]2-!ped-up!!<)! | [G,B,]2 z2 z2 | %20
!f! z2 .F,,2 z2 | .[=B,,,=B,,]2 z2 z2 | z2 .[_B,,,_B,,]2 z2 | .[A,,,A,,]2 z2 .[G,,,G,,]2 | %24
 z2 .[^F,,,^F,,]2 z2 | .G,,2 z2 .[=F,,=F,]2 | z2 .[E,,E,]2 z2 | .[D,,D,]2 z2 .[C,,C,]2 | %28
 z2 .[=B,,,=B,,]2 z2 | .[C,,C,]2 z2 .[C,G,]2 | .[F,,C,F,]2 z2 z2 | z2 z2 .E,2 | .F,2 z2 .^F,2 | %33
 .G,2 z2 .^G,2 | .A,2 z2 !>!=B,2 | z2 z2 .G,2 | .A,2 z2 .=B,2 | .C2 z2 .^F,2 | .G,2 z2 z2 | z6 | %40
!ped!!mf! [_A,,,_A,,]6!ped-up! |!ped! [B,,,B,,]2 z2!ped-up! z2 |!ped! [_E,,_E,]2 z2!ped-up! z2 | %43
!ped! [_E,,,_E,,]2 z2 z2!ped-up! |!ped! [D,,,D,,]2 z2 z2!ped-up! |!ped! [D,,D,]2 z2!ped-up! z2 | %46
 [G,,G,]2 z2 z2 | z2 z2 .E,2 | .F,2 z2 .^F,2 | .G,2 z2 .^G,2 | .A,2 z2 !>!=B,2 | z2 z2 .G,2 | %52
 .A,2 z2 .=B,2 | .C2 z2 .^F,2 | .G,2 z2 z2 | z6 |!ped!!mf! [A,,,A,,]6!ped-up! | %57
!ped! [=B,,,=B,,]2 z2!ped-up! z2 |!ped! [E,,E,]2 z2!ped-up! z2 |!ped! [C,,C,]2 z2 z2!ped-up! | %60
!ped! [G,,,G,,]2 z2 z2!ped-up! |!ped! [=B,,,=B,,]2 z2!ped-up! z2 | E,,2!ped! z2 z2!ped-up! | %63
 [C,,C,]2!ped! z2 z2!ped-up! | [A,,,A,,]2!ped! z2 z2!ped-up! | [=B,,,=B,,]2!ped! z2 z2!ped-up! | %66
 E,,2!ped! z2 z2!ped-up! | [C,,C,]2!ped! z2 z2!ped-up! | [A,,,A,,]2!ped! z2 z2!ped-up! | %69
!p! [_A,,,_A,,]2!ped! z2 z2!ped-up! | [G,,,G,,]2!ped! z2 z2!ped-up! | z2 z2 .E,2 | .F,2 z2 .^F,2 | %73
 .G,2 z2 .^G,2 | .A,2 z2 !>!=B,2 | z2 z2 .G,2 | .A,2 z2 .=B,2 | .C2 z2 .^F,2 | .G,2 z2 z2 | z6 | %80
!ped!!mp! [E,,E,]2 z2!ped-up! z2 |!ped! [^F,,^F,]2 z2!ped-up! z2 |!ped! [=F,,=F,]2 z2!ped-up! z2 | %83
!ped! [E,,C,]6!ped-up! |!ped! [F,,D,]6!ped-up! |!ped! F,6!ped-up! | [E,G,]2 z2 z2 | z2 .F,,2 z2 | %88
 .B,,2 z2 z2 | z2 .G,,2 z2 | .A,,2 z2 z2 | z2 G,,2 z2 |!ped! [C,,C,]2 z2!ped-up!!ped! ^F,,2 | %93
 z2!ped-up!!ped! G,,2 z2!ped-up! |!ped! [C,,C,]2 z2!ped-up! z2 |!ped! [_B,,,_B,,]2 z2 z2 | %96
 z6!ped-up!!ped!!ped-up! |!ped! [A,,,A,,]2 z2 z2!ped-up! |!mp!!ped! D,,2 z2 z2!ped-up! | %99
!ped! z2 [G,B,]2 [G,B,]2!ped-up! |!ped! z2 [G,B,]2 [G,B,]2!ped-up! | %101
!ped!!<(! z2 [G,B,]2 [G,B,]2-!ped-up!!<)! | [G,B,]2 z2 z2 |!f! z2 .F,,2 z2 | .[=B,,,=B,,]2 z2 z2 | %105
 z2 .[_B,,,_B,,]2 z2 | .[A,,,A,,]2 z2 .[G,,,G,,]2 | z2 .[^F,,,^F,,]2 z2 | .G,,2 z2 .[=F,,=F,]2 | %109
 z2 .[E,,E,]2 z2 | .[D,,D,]2 z2 .[C,,C,]2 | z2 .[=B,,,=B,,]2 z2 | .[C,,C,]2 z2 .[C,G,]2 | %113
 z2 .[=B,,,=B,,]2 z2 | .[C,,C,]2 z2 .[C,G,]2 | .[F,,C,F,]2 z2 z2 |!ped! ([F,,-C,]6!ped-up! | %117
!ped! [F,,_D,]6)!ped-up! |!ped! ([F,,-C,]6!ped-up! |!ped! [F,,_D,]6)!ped-up! | [F,,C,]6 | %121
 B,,4 C,2 | _D,6- |!pp!!ped! D,6!ped-up! |!ped! [_D,,_D,]2 z2!ped-up! z2 |!ped! z6!ped-up! | %126
!ped! [B,,,B,,]2 z2!ped-up! z2 |!ped! z6!ped-up! |!ped! [_G,,,_G,,]2 z2 z2!ped-up! | %129
!ped! _F,2 x F, F,2!ped-up! |!ped! [_F,,,_F,,]2 z2 z2!ped-up! | %131
!ped! [=F,,,=F,,]2!pp! z2 z2!ped-up! |!ped! [A,,,A,,]2 z2!ped-up! z2 | %133
!ped! [C,,C,]2 z2!ped-up! z2 |!ped! [A,,,A,,]2 z2!ped-up! z2 |!ped! [C,,C,]2 z2!ped-up! z2 | %136
!ped! [A,,,A,,]2 z2 z2!ped-up! |!ped! [A,,,A,,]2 z2 z2!ped-up! |!ped! [A,,,A,,]2 z2 z2!ped-up! | %139
!ped! [C,,C,]2 z2!ped-up! z2 | z6 |!ped! [C,,C,]2 z2!ped-up! z2 | z6 | [F,,,F,,]2 z2 z2 |] %144
V:5
 x6 | x6 | x6 | x6 | x6 | x6 | x6 | x6 | x6 | x6 | x6 | x6 | x6 | x6 | x6 | x6 | G,,2 z2 z2 | %17
 [_D,,_D,]2 z2 z2 | [C,,C,]2 z2 z2 | z6 | x6 | x6 | x6 | x6 | x6 | x6 | x6 | x6 | x6 | x6 | x6 | %31
 x6 | x6 | x6 | x6 | x6 | x6 | x6 | x6 | x6 | x6 | x6 | x6 | x6 | x6 | x6 | x6 | x6 | x6 | x6 | %50
 x6 | x6 | x6 | x6 | x6 | x6 | x6 | x6 | x6 | x6 | x6 | x6 | x6 | x6 | x6 | x6 | x6 | x6 | x6 | %69
 x6 | x6 | x6 | x6 | x6 | x6 | x6 | x6 | x6 | x6 | x6 | x6 | x6 | x6 | x6 | x6 | [G,,,G,,]2 z2 z2 | %86
 C,,2 x4 | x6 | x6 | x6 | x6 | x6 | x6 | x6 | x6 | x6 | x6 | x6 | x6 | G,,2 z2 z2 | %100
 [_D,,_D,]2 z2 z2 | [C,,C,]2 z2 z2 | z6 | x6 | x6 | x6 | x6 | x6 | x6 | x6 | x6 | x6 | x6 | x6 | %114
 x6 | x6 | x6 | x6 | x6 | x6 | x6 | _E,,6- | E,,4 =E,,2 | F,,6 | x6 | x6 | x6 | x6 | x6 | %129
 [_A,,,_A,,]2 z2 z2 | x6 | x6 | x6 | x6 | x6 | x6 | x6 | x6 | x6 | x6 | x6 | x6 | x6 | x6 |] %144
V:6
 x6 | x6 | x6 | x6 | x6 | x6 | x6 | x6 | x6 | x6 | x6 | x6 | x6 | x6 | x6 | x6 |[K:treble] x6 | %17
 x6 | x6 | x6 |[K:bass] x6 | x6 | x6 |[K:treble] x6 | x4[K:bass] x2 | x6 | x6 | x6 | x6 | x6 | x6 | %31
[K:treble] x6 | x6 | x6 | x6 | x6 | x6 | x6 | x6 | x6 | C6 | _A,2 x4 | G2 z2 z2 | [B,^C]2 x4 | %44
 G,2 x4 | C4 x2 | x6 | x6 | x6 | x6 | x6 | x6 | x6 | x6 | x6 | x6 | C6 | A,2 x4 | G2 x4 | x6 | x6 | %61
 A,6 |[K:bass] x6 | x6 | x6 | x6 | x6 | x6 | x6 | x6 |[K:treble] x6 | x6 | x6 | x6 | x6 | x6 | x6 | %77
 x6 | x6 | x6 | x6 | x6 | x6 | x6 | _B,6 | =B,6 | x6 |[K:bass] x6 | x6 | x6 | x6 | x6 | x6 | x6 | %94
 x6 | x6 | x6 | x6 | x6 |[K:treble] x6 | x6 | x6 | x6 |[K:bass] x6 | x6 | x6 |[K:treble] x6 | %107
 x4[K:bass] x2 | x6 | x6 | x6 | x6 | x6 | x6 | x6 | x6 |[K:treble] x6 | x6 | x6 | x6 | =A,4 G,2 | %121
 x6 | x6 | x6 | x6 | x6 | x6 | x6 | x6 | x6 | x6 |[K:bass] x6 | x6 | x6 | x6 | x6 | x6 | x6 | %138
 x2[K:treble] x4 | x6 | x6 | x6 | x6 | x6 |] %144

